X:4809
L:1/8
M:2/4
K:C
"^A""C" ge ec |"G7" cB B2 | af fd |"C" dc c2 |"Dm" df A2 |"C" ce G2 |"G7" B/c/d/e/ fB | 
"C" ce c z ::"^B""C" G>e dc |"G7" Bc d2 | G>f ed |"C" cd e2 | G>e dc |"G7" Bc d2 | G>f ed | 
"C" cc c z ::[K:C][K:F]"F" c2 f2 |"C7" e4 | B2 d2 |"F" c4 | aa aa |"C7" bb e2 | gg gg |"F" aa f2 | 
 c2 f2 |"C7" e4 | B2 d2 |"F" c4 | aa aa |"C7" bb e2 | gg ag |"F" fa f z :|

